X:079
U: ~ = !turn!
%%topmargin 3cm
T:Garrett Barry's Jig
B:Traditional Irish Fiddle Tunes. Randy Miller and Jack Perron.
Z:Transcribed by Ralph Palmer
S:Na Fili
R:Jig
L:1/8
M:6/8
K:G
DEF ~G3 | AGE c2 e | dcA B/2c/2de | fed cAG |
~F3 ~G3 | ~A3 B/2c/2de | dcA GEA | D>ED D2 d ::
dcA d2 e | fed e/2f/2ge | dcA c2 d | e/2f/2gd ecA |
dcA d2 e | fed e/2f/2ge | dcA GEA | D>ED {/E}D2 A :|]
